teeny/solid/imac.svg

<svg width="15" height="15" viewBox="0 0 15 15" fill="none" xmlns="http://www.w3.org/2000/svg">
<path d="M13.5 0C14.3284 0 15 0.671573 15 1.5V7H0V1.5C0 0.671573 0.671573 0 1.5 0H13.5Z" fill="black"/>
<path d="M0 8V9.5C0 10.3284 0.671573 11 1.5 11H7V14H2V15H13V14H8V11H13.5C14.3284 11 15 10.3284 15 9.5V8H0Z" fill="black"/>
</svg>

<svg viewBox="0 0 15 15" xmlns="http://www.w3.org/2000/svg"><g><path d="M13.5 0c.82 0 1.5.67 1.5 1.5V7H0V1.5C0 .67.67 0 1.5 0h12Z"/><path d="M0 8v1.5c0 .82.67 1.5 1.5 1.5H7v3H2v1h11v-1H8v-3h5.5c.82 0 1.5-.68 1.5-1.5V8H0Z"/></g></svg>
